svg/u1f234.svg

<svg viewBox="0 0 128 128" xmlns="http://www.w3.org/2000/svg">
  <linearGradient id="a" gradientTransform="translate(0 -4122)" gradientUnits="userSpaceOnUse" x1="64" x2="64" y1="4127.6" y2="4243.9">
    <stop offset="0" stop-color="#EF5350"/>
    <stop offset=".5777" stop-color="#E0403E"/>
    <stop offset="1" stop-color="#D32F2F"/>
  </linearGradient>
  <path d="m116 124h-104c-4.4 0-8-3.6-8-8v-104c0-4.4 3.6-8 8-8h104c4.4 0 8 3.6 8 8v104c0 4.4-3.6 8-8 8z" fill="url(#a)"/>
  <g opacity=".2">
    <path d="m116 7c2.8 0 5 2.2 5 5v104c0 2.8-2.2 5-5 5h-104c-2.8 0-5-2.2-5-5v-104c0-2.8 2.2-5 5-5h104m0-3h-104c-4.4 0-8 3.6-8 8v104c0 4.4 3.6 8 8 8h104c4.4 0 8-3.6 8-8v-104c0-4.4-3.6-8-8-8z" fill="#424242"/>
  </g>
  <g opacity=".2">
    <path d="m65.4 16c0.3 0 0.5 0.1 0.8 0.2l4.8 2.4c0.9 0.5 1.2 1.7 0.7 2.5-0.3 0.5-0.7 1-1.1 1.5-0.5 0.7-0.4 1.7 0.2 2.3 10.8 10.3 22.6 17.1 35.5 22.5 1.1 0.5 1.4 1.9 0.6 2.8-1.4 1.5-2.7 3.2-3.6 4.9-0.3 0.6-0.9 0.9-1.5 0.9-0.3 0-0.5-0.1-0.8-0.2-3.6-1.8-7.2-3.6-10.7-5.6-0.3-0.1-0.6-0.2-0.9-0.2-0.9 0-1.8 0.7-1.8 1.8v1.6c0 1-0.8 1.8-1.8 1.8h-44.4c-1 0-1.8-0.8-1.8-1.8s-0.8-1.8-1.8-1.8c-0.3 0-0.6 0.1-0.9 0.2-3.2 1.9-6.5 3.7-9.9 5.2-0.2 0.1-0.5 0.2-0.7 0.2-0.6 0-1.1-0.3-1.4-0.8-1.1-1.6-2.5-3.4-3.9-5-0.8-0.9-0.5-2.3 0.6-2.8 16.7-7 32.9-18.3 42.4-31.9 0.3-0.4 0.9-0.7 1.4-0.7m-14.9 30.8h28.5c1.7 0 2.4-2.2 1-3.2-4.9-3.5-9.7-7.5-14.6-12.1-0.3-0.3-0.8-0.5-1.2-0.5-0.5 0-0.9 0.2-1.3 0.5-4.1 4.4-8.7 8.4-13.5 12.1-1.3 1.1-0.6 3.2 1.1 3.2m42.2 18.3c1 0 1.8 0.8 1.8 1.8v35c0 1-0.8 1.8-1.8 1.8h-5.9c-1 0-1.8-0.8-1.8-1.8v-0.9c0-1-0.8-1.8-1.8-1.8h-38.2c-1 0-1.8 0.8-1.8 1.8v1.3c0 1-0.8 1.8-1.8 1.8h-5.4c-1 0-1.8-0.8-1.8-1.8v-35.5c0-1 0.8-1.8 1.8-1.8h56.7m-47.7 25.9h38.2c1 0 1.8-0.8 1.8-1.8v-14.3c0-1-0.8-1.8-1.8-1.8h-38.2c-1 0-1.8 0.8-1.8 1.8v14.3c0.1 1 0.9 1.8 1.8 1.8m20.4-77.9c-1.5 0-3 0.8-3.9 2-8.5 12.3-23.5 23.5-40.9 30.8-1.4 0.6-2.5 1.9-2.8 3.4s0.1 3.1 1.1 4.2c1.5 1.7 2.8 3.4 3.7 4.6 0.9 1.3 2.4 2.1 3.9 2.1 0.7 0 1.3-0.1 2-0.4 2.6-1.2 5.4-2.6 8.7-4.5 0.7 1.7 2.4 2.8 4.3 2.8h44.5c2.4 0 4.4-1.8 4.7-4.2 2.6 1.4 5.4 2.9 8.9 4.6 0.7 0.3 1.4 0.5 2.1 0.5 1.7 0 3.3-0.9 4.1-2.4 0.8-1.4 1.9-3 3.2-4.3 1.1-1.1 1.5-2.7 1.2-4.2s-1.4-2.8-2.8-3.4c-13.7-5.7-24.5-12.5-33.8-21.1 0.2-0.2 0.3-0.4 0.5-0.7 0.8-1.1 1-2.5 0.7-3.9-0.3-1.3-1.2-2.4-2.4-3.1l-4.8-2.4c-0.7-0.2-1.4-0.4-2.2-0.4zm-11.3 30.8c3.7-3 7.1-6.1 10.2-9.3 3.6 3.4 7.2 6.5 10.9 9.3h-21.1zm38.6 18.3h-56.7c-2.6 0-4.8 2.1-4.8 4.8v35.4c0 2.6 2.1 4.8 4.8 4.8h5.5c2.6 0 4.8-2.1 4.8-4.8v-0.1h35.7c0.2 2.5 2.2 4.4 4.7 4.4h5.9c2.6 0 4.8-2.1 4.8-4.8v-35c0-2.6-2.1-4.7-4.7-4.7zm-46.4 14h35.7v11.8h-35.7v-11.8z" fill="#424242"/>
  </g>
  <path d="m71.6 21.2c-0.3 0.5-0.7 1-1.1 1.5-0.5 0.7-0.4 1.7 0.2 2.3 10.8 10.3 22.6 17.1 35.5 22.5 1.1 0.5 1.4 1.9 0.6 2.8-1.4 1.5-2.7 3.2-3.6 4.9-0.4 0.8-1.5 1.1-2.3 0.7-3.6-1.8-7.2-3.6-10.7-5.6-1.2-0.7-2.6 0.2-2.6 1.5v1.6c0 1-0.8 1.8-1.8 1.8h-44.4c-1 0-1.8-0.8-1.8-1.8 0-1.3-1.5-2.2-2.6-1.5-3.2 1.9-6.5 3.7-9.9 5.2-0.8 0.3-1.7 0.1-2.1-0.6-1.1-1.6-2.5-3.4-3.9-5-0.8-0.9-0.5-2.3 0.6-2.8 16.6-7.1 32.8-18.4 42.3-31.9 0.5-0.7 1.5-1 2.2-0.6l4.8 2.4c0.9 0.5 1.2 1.7 0.6 2.6zm-35.6 43.9h56.7c1 0 1.8 0.8 1.8 1.8v35c0 1-0.8 1.8-1.8 1.8h-5.9c-1 0-1.8-0.8-1.8-1.8v-0.9c0-1-0.8-1.8-1.8-1.8h-38.2c-1 0-1.8 0.8-1.8 1.8v1.3c0 1-0.8 1.8-1.8 1.8h-5.4c-1 0-1.8-0.8-1.8-1.8v-35.5c0-0.9 0.8-1.7 1.8-1.7zm7.3 9.7v14.3c0 1 0.8 1.8 1.8 1.8h38.2c1 0 1.8-0.8 1.8-1.8v-14.3c0-1-0.8-1.8-1.8-1.8h-38.3c-1 0.1-1.7 0.9-1.7 1.8zm36.7-31.2c-4.9-3.5-9.7-7.5-14.6-12.1-0.7-0.7-1.8-0.6-2.5 0.1-4.1 4.4-8.7 8.4-13.5 12.1-1.3 1-0.6 3.1 1.1 3.1h28.5c1.7 0 2.4-2.2 1-3.2z" fill="#FAFAFA"/>
</svg>

<svg viewBox="0 0 128 128" xmlns="http://www.w3.org/2000/svg" xmlns:xlink="http://www.w3.org/1999/xlink">
  <linearGradient id="SVGID_1_" gradientTransform="matrix(1 0 0 1 0 -4121.9702)" gradientUnits="userSpaceOnUse" x1="64" x2="64" y1="4127.6367" y2="4243.8901">
    <stop offset="0" style="stop-color:#EF5350"/>
    <stop offset="0.5777" style="stop-color:#E0403E"/>
    <stop offset="1" style="stop-color:#D32F2F"/>
  </linearGradient>
  <path d="M116,124H12c-4.4,0-8-3.6-8-8V12c0-4.4,3.6-8,8-8h104c4.4,0,8,3.6,8,8v104 C124,120.4,120.4,124,116,124z" fill="url(#SVGID_1_)"/>
  <g opacity="0.2">
    <path d="M116,7c2.8,0,5,2.2,5,5v104c0,2.8-2.2,5-5,5H12c-2.8,0-5-2.2-5-5V12c0-2.8,2.2-5,5-5H116 M116,4H12 c-4.4,0-8,3.6-8,8v104c0,4.4,3.6,8,8,8h104c4.4,0,8-3.6,8-8V12C124,7.6,120.4,4,116,4z" fill="#424242"/>
  </g>
  <g opacity="0.2">
    <path d="M65.4,16c0.3,0,0.5,0.1,0.8,0.2l4.8,2.4c0.9,0.5,1.2,1.7,0.7,2.5c-0.3,0.5-0.7,1-1.1,1.5 c-0.5,0.7-0.4,1.7,0.2,2.3C81.6,35.2,93.4,42,106.3,47.4c1.1,0.5,1.4,1.9,0.6,2.8c-1.4,1.5-2.7,3.2-3.6,4.9 c-0.3,0.6-0.9,0.9-1.5,0.9c-0.3,0-0.5-0.1-0.8-0.2c-3.6-1.8-7.2-3.6-10.7-5.6C90,50.1,89.7,50,89.4,50c-0.9,0-1.8,0.7-1.8,1.8v1.6 c0,1-0.8,1.8-1.8,1.8H41.4c-1,0-1.8-0.8-1.8-1.8l0,0c0-1-0.8-1.8-1.8-1.8c-0.3,0-0.6,0.1-0.9,0.2c-3.2,1.9-6.5,3.7-9.9,5.2 c-0.2,0.1-0.5,0.2-0.7,0.2c-0.6,0-1.1-0.3-1.4-0.8c-1.1-1.6-2.5-3.4-3.9-5c-0.8-0.9-0.5-2.3,0.6-2.8c16.7-7,32.9-18.3,42.4-31.9 C64.3,16.3,64.9,16,65.4,16 M50.5,46.8H79c1.7,0,2.4-2.2,1-3.2c-4.9-3.5-9.7-7.5-14.6-12.1c-0.3-0.3-0.8-0.5-1.2-0.5 c-0.5,0-0.9,0.2-1.3,0.5c-4.1,4.4-8.7,8.4-13.5,12.1C48.1,44.7,48.8,46.8,50.5,46.8 M92.7,65.1c1,0,1.8,0.8,1.8,1.8v35 c0,1-0.8,1.8-1.8,1.8h-5.9c-1,0-1.8-0.8-1.8-1.8V101c0-1-0.8-1.8-1.8-1.8H45c-1,0-1.8,0.8-1.8,1.8v1.3c0,1-0.8,1.8-1.8,1.8H36 c-1,0-1.8-0.8-1.8-1.8V66.8c0-1,0.8-1.8,1.8-1.8h56.7 M45,90.9h38.2c1,0,1.8-0.8,1.8-1.8V74.8c0-1-0.8-1.8-1.8-1.8H45 c-1,0-1.8,0.8-1.8,1.8v14.3C43.3,90.1,44.1,90.9,45,90.9 M65.4,13c-1.5,0-3,0.8-3.9,2C53,27.3,38,38.5,20.6,45.8 c-1.4,0.6-2.5,1.9-2.8,3.4s0.1,3.1,1.1,4.2c1.5,1.7,2.8,3.4,3.7,4.6c0.9,1.3,2.4,2.1,3.9,2.1c0.7,0,1.3-0.1,2-0.4 c2.6-1.2,5.4-2.6,8.7-4.5c0.7,1.7,2.4,2.8,4.3,2.8H86c2.4,0,4.4-1.8,4.7-4.2c2.6,1.4,5.4,2.9,8.9,4.6c0.7,0.3,1.4,0.5,2.1,0.5 c1.7,0,3.3-0.9,4.1-2.4c0.8-1.4,1.9-3,3.2-4.3c1.1-1.1,1.5-2.7,1.2-4.2s-1.4-2.8-2.8-3.4c-13.7-5.7-24.5-12.5-33.8-21.1 c0.2-0.2,0.3-0.4,0.5-0.7c0.8-1.1,1-2.5,0.7-3.9c-0.3-1.3-1.2-2.4-2.4-3.1l-4.8-2.4C66.9,13.2,66.2,13,65.4,13z M54.1,43.8 c3.7-3,7.1-6.1,10.2-9.3c3.6,3.4,7.2,6.5,10.9,9.3H54.1z M92.7,62.1H36c-2.6,0-4.8,2.1-4.8,4.8v35.4c0,2.6,2.1,4.8,4.8,4.8h5.5 c2.6,0,4.8-2.1,4.8-4.8v-0.1H82c0.2,2.5,2.2,4.4,4.7,4.4h5.9c2.6,0,4.8-2.1,4.8-4.8v-35C97.4,64.2,95.3,62.1,92.7,62.1z M46.3,76.1 H82v11.8H46.3V76.1z" fill="#424242"/>
  </g>
  <path d="M71.6,21.2c-0.3,0.5-0.7,1-1.1,1.5c-0.5,0.7-0.4,1.7,0.2,2.3c10.8,10.3,22.6,17.1,35.5,22.5 c1.1,0.5,1.4,1.9,0.6,2.8c-1.4,1.5-2.7,3.2-3.6,4.9c-0.4,0.8-1.5,1.1-2.3,0.7c-3.6-1.8-7.2-3.6-10.7-5.6c-1.2-0.7-2.6,0.2-2.6,1.5 v1.6c0,1-0.8,1.8-1.8,1.8H41.4c-1,0-1.8-0.8-1.8-1.8l0,0c0-1.3-1.5-2.2-2.6-1.5c-3.2,1.9-6.5,3.7-9.9,5.2c-0.8,0.3-1.7,0.1-2.1-0.6 c-1.1-1.6-2.5-3.4-3.9-5c-0.8-0.9-0.5-2.3,0.6-2.8C38.3,41.6,54.5,30.3,64,16.8c0.5-0.7,1.5-1,2.2-0.6l4.8,2.4 C71.9,19.1,72.2,20.3,71.6,21.2z M36,65.1h56.7c1,0,1.8,0.8,1.8,1.8v35c0,1-0.8,1.8-1.8,1.8h-5.9c-1,0-1.8-0.8-1.8-1.8V101 c0-1-0.8-1.8-1.8-1.8H45c-1,0-1.8,0.8-1.8,1.8v1.3c0,1-0.8,1.8-1.8,1.8H36c-1,0-1.8-0.8-1.8-1.8V66.8C34.2,65.9,35,65.1,36,65.1z M43.3,74.8v14.3c0,1,0.8,1.8,1.8,1.8h38.2c1,0,1.8-0.8,1.8-1.8V74.8c0-1-0.8-1.8-1.8-1.8H45C44,73.1,43.3,73.9,43.3,74.8z M80,43.6 c-4.9-3.5-9.7-7.5-14.6-12.1c-0.7-0.7-1.8-0.6-2.5,0.1C58.8,36,54.2,40,49.4,43.7c-1.3,1-0.6,3.1,1.1,3.1H79 C80.7,46.8,81.4,44.6,80,43.6z" fill="#FAFAFA"/>
</svg>
